brandFactory_export/1.Light/Certificado_1Light.svg

<?xml version="1.0" encoding="UTF-8"?>
<svg width="24px" height="24px" viewBox="0 0 24 24" version="1.1" xmlns="http://www.w3.org/2000/svg" xmlns:xlink="http://www.w3.org/1999/xlink">
    <title>1.Light/Certificado_1Light</title>
    <g id="Symbols" stroke="none" stroke-width="1" fill="none" fill-rule="evenodd">
        <g id="1.Light/Certificado_1Light" fill="#5CB615" fill-rule="nonzero">
            <path d="M19.2487395,22.6319328 C19.497479,22.6319328 19.7294118,22.410084 19.7294118,22.1781513 L19.7294118,7.92268908 L16.6773109,7.92268908 C15.5109244,7.92268908 14.5058824,7.54285714 13.7697479,6.82352941 C13.0302521,6.10084034 12.6403361,5.1092437 12.6403361,3.96302521 L12.6403361,0.994957983 L4.45882353,0.994957983 C4.24033613,0.994957983 3.97815126,1.24033613 3.97815126,1.4487395 L3.97815126,8.36302521 L4.02857143,18.1411765 L3.97815126,22.1815126 C3.97815126,22.4 4.22016807,22.6285714 4.45882353,22.6285714 L19.2487395,22.6285714 L19.2487395,22.6319328 Z M19.4739496,6.92773109 L13.6218487,1.21008403 L13.6218487,3.95966387 C13.6218487,4.83361345 13.907563,5.57647059 14.4521008,6.10756303 C15,6.64201681 15.7697479,6.92773109 16.6739496,6.92773109 L19.4739496,6.92773109 L19.4739496,6.92773109 Z M20.6739496,6.90756303 C20.7008403,6.96806723 20.7142857,7.03193277 20.7142857,7.10252101 L20.7142857,22.1781513 C20.7142857,22.9613445 20.0453782,23.6235294 19.2521008,23.6235294 L4.46218487,23.6235294 C3.68235294,23.6235294 3,22.9478992 3,22.1781513 L3.05042017,18.1411765 L3,8.3697479 L3,1.44537815 C3,0.68907563 3.69915966,0 4.46218487,0 L13.4638655,0 C13.6789916,0 13.887395,0.0840336134 14.0386555,0.231932773 L20.4689076,6.51428571 C20.5764706,6.62184874 20.6369748,6.75966387 20.6739496,6.90756303 Z M15.0941176,18.9613445 L16.1663866,19.3579832 L14.6605042,16.0537815 C14.0823529,16.5815126 13.292437,16.8773109 12.3277311,16.9647059 L13.9008403,20.4201681 L14.3008403,19.3277311 C14.4218487,19.005042 14.7781513,18.8436975 15.0941176,18.9613445 L15.0941176,18.9613445 Z M9.2487395,20.4168067 L10.8319328,16.9445378 C9.87731092,16.810084 9.12773109,16.4403361 8.58991597,15.8386555 L6.98319328,19.3647059 L8.05882353,18.9613445 C8.37142857,18.8436975 8.72773109,19.0084034 8.8487395,19.3243697 L9.2487395,20.4168067 L9.2487395,20.4168067 Z M11.7226891,9.49579832 C9.44033613,9.49579832 8.37478992,10.5714286 8.37478992,12.8806723 C8.37478992,15.189916 9.43697479,16.2621849 11.7226891,16.2621849 C14.0084034,16.2621849 15.0705882,15.1865546 15.0705882,12.8806723 C15.0705882,10.5714286 14.0084034,9.49579832 11.7226891,9.49579832 L11.7226891,9.49579832 Z M15.1882353,15.4319328 L16.9563025,19.3176471 C17.0571429,19.5361345 17.0235294,19.7848739 16.8756303,19.9697479 C16.7277311,20.1546218 16.4890756,20.2352941 16.2638655,20.1848739 L14.9495798,19.7008403 L14.4756303,20.9848739 C14.3478992,21.2336134 14.1394958,21.3613445 13.9142857,21.3613445 L13.897479,21.3613445 C13.6621849,21.3546218 13.4537815,21.2168067 13.3529412,20.9983193 L11.5747899,17.0991597 L9.79663866,21.0016807 C9.69915966,21.2168067 9.4907563,21.3546218 9.25546218,21.3647059 L9.23865546,21.3647059 C9.01008403,21.3647059 8.80504202,21.2369748 8.69411765,21.0352941 L8.2,19.707563 L6.93277311,20.1781513 C6.65378151,20.2487395 6.42184874,20.1613445 6.27394958,19.9764706 C6.12605042,19.7882353 6.09579832,19.5394958 6.19327731,19.3243697 L8.08907563,15.1663866 C8.09579832,15.1529412 8.1092437,15.1428571 8.11596639,15.1327731 C7.81680672,14.5310924 7.64201681,13.794958 7.64201681,12.887395 C7.64201681,10.0739496 9.14453782,8.75966387 11.7260504,8.75966387 C14.307563,8.75966387 15.810084,10.0773109 15.810084,12.887395 C15.810084,13.9428571 15.594958,14.789916 15.1882353,15.4319328 L15.1882353,15.4319328 Z M11.0504202,12.4302521 L10.3747899,12.5378151 L10.902521,13.1193277 C10.9865546,13.2033613 11.0268908,13.3411765 11.0067227,13.4588235 L10.8823529,14.2285714 L11.5445378,13.8890756 C11.5983193,13.8588235 11.6621849,13.8420168 11.7260504,13.8420168 C11.7663866,13.8420168 11.8067227,13.8487395 11.8436975,13.8621849 L12.5563025,14.2521008 L12.4386555,13.4588235 C12.4184874,13.3411765 12.4621849,13.2033613 12.5462185,13.1193277 L13.0739496,12.5781513 L12.3378151,12.4268908 C12.2201681,12.410084 12.1092437,12.3260504 12.0554622,12.2184874 L11.7260504,11.512605 L11.3865546,12.2117647 C11.3294118,12.3394958 11.194958,12.4302521 11.0504202,12.4302521 L11.0504202,12.4302521 Z M10.2504202,13.5159664 L9.84705882,13.102521 C9.64201681,12.8907563 9.57815126,12.5915966 9.66890756,12.312605 C9.75630252,12.0403361 9.98487395,11.8453782 10.2638655,11.8016807 L10.8084034,11.7176471 L11.0537815,11.189916 C11.302521,10.6588235 12.1428571,10.6554622 12.394958,11.189916 L12.6436975,11.7210084 L13.1882353,11.8016807 C13.4638655,11.8453782 13.692437,12.0403361 13.7831933,12.312605 C13.8739496,12.5882353 13.8067227,12.8907563 13.605042,13.0991597 L13.2016807,13.5159664 L13.2991597,14.1042017 C13.3462185,14.3966387 13.2285714,14.6857143 12.989916,14.8571429 C12.7579832,15.0184874 12.4487395,15.0352941 12.210084,14.9042017 L11.7294118,14.6386555 L11.2487395,14.907563 C11.1378151,14.9680672 11.0134454,14.9983193 10.892437,14.9983193 C10.7445378,14.9983193 10.5932773,14.9512605 10.4655462,14.8605042 C10.2268908,14.692437 10.1092437,14.4033613 10.1563025,14.107563 L10.2504202,13.5159664 L10.2504202,13.5159664 Z" id="Certificado_1Light"></path>
        </g>
    </g>
</svg>

<svg width="24" height="24" viewBox="0 0 24 24" xmlns="http://www.w3.org/2000/svg"><path d="M19.249 22.632c.248 0 .48-.222.48-.454V7.923h-3.052c-1.166 0-2.171-.38-2.907-1.1-.74-.722-1.13-1.714-1.13-2.86V.995H4.46c-.219 0-.48.245-.48.454v6.914l.05 9.778-.05 4.04c0 .219.241.448.48.448h14.79v.003zm.225-15.704L13.622 1.21v2.75c0 .874.286 1.616.83 2.148.548.534 1.318.82 2.222.82h2.8zm1.2-.02a.47.47 0 01.04.195v15.075c0 .783-.669 1.446-1.462 1.446H4.462c-.78 0-1.462-.676-1.462-1.446l.05-4.037L3 8.37V1.445C3 .69 3.7 0 4.462 0h9.002c.215 0 .423.084.575.232l6.43 6.282a.822.822 0 01.205.394zm-5.58 12.053l1.072.397-1.505-3.304c-.579.528-1.369.823-2.333.91L13.9 20.42l.4-1.092a.619.619 0 01.793-.367zM9.25 20.417l1.583-3.472c-.955-.135-1.704-.505-2.242-1.106l-1.607 3.526 1.076-.404a.62.62 0 01.79.363l.4 1.093zm2.474-10.921c-2.283 0-3.348 1.075-3.348 3.385 0 2.309 1.062 3.381 3.348 3.381 2.285 0 3.348-1.075 3.348-3.381 0-2.31-1.063-3.385-3.348-3.385zm3.465 5.936l1.768 3.886a.62.62 0 01-.692.867L14.95 19.7l-.474 1.284c-.128.249-.337.376-.562.376h-.017a.616.616 0 01-.544-.363L11.575 17.1l-1.778 3.903a.62.62 0 01-.542.363H9.24a.622.622 0 01-.545-.33L8.2 19.708l-1.267.47c-.28.07-.511-.017-.66-.202a.63.63 0 01-.08-.652l1.896-4.158c.007-.013.02-.023.027-.033-.3-.602-.474-1.338-.474-2.246 0-2.813 1.503-4.127 4.084-4.127 2.582 0 4.084 1.317 4.084 4.127 0 1.056-.215 1.903-.622 2.545zM11.05 12.43l-.675.108.528.581a.405.405 0 01.104.34l-.125.77.663-.34a.374.374 0 01.299-.027l.712.39-.117-.793a.407.407 0 01.107-.34l.528-.54-.736-.152a.39.39 0 01-.283-.209l-.329-.705-.34.699a.375.375 0 01-.336.218zm-.8 1.086l-.403-.413a.777.777 0 01-.178-.79.743.743 0 01.595-.511l.544-.084.246-.528c.249-.531 1.089-.535 1.341 0l.249.531.544.08a.753.753 0 01.595.512.779.779 0 01-.178.786l-.403.417.097.588a.77.77 0 01-.31.753.75.75 0 01-.779.047l-.48-.265-.481.269a.742.742 0 01-.783-.047.765.765 0 01-.31-.753l.094-.592z" fill="#5CB615" fill-rule="nonzero"/></svg>
